site/public/static/about-principles-05.svg

<svg width="1344" height="759" viewBox="0 0 1344 759" xmlns="http://www.w3.org/2000/svg">
  <g clip-path="url(#Number=05__clip0)">
    <path d="M0 0h1344v759H0V0z" fill="#213A82"/>
    <path fill-rule="evenodd" clip-rule="evenodd" d="M776.017 463.114c204.651-174.126 194.398-322.298 194.502-325.921 3.033-105.845 8.535-251.982-102.221-343.724-110.756-91.741-344.473-73.304-349.492-72.565C419.475-264.477 370.08-111.219 284.563-25.65c-91.88 91.934-166.551 172.219-172.43 282.796-5.879 110.577 102.381 211.697 181.342 290.718 76.983 77.051 277.89 89.376 482.542-84.75z" fill="#87A4FC"/>
    <path fill-rule="evenodd" clip-rule="evenodd" d="M543.347 307.318l.031-.046c28.712-42.425 74.521-62.472 133.651-62.472 59.099 0 104.774 20.033 133.121 62.517 27.411 40.529 40.239 94.637 40.239 160.683 0 66.748-12.811 121.248-40.239 161.803-28.347 42.484-74.022 62.517-133.121 62.517-59.13 0-104.939-20.047-133.651-62.472l-.031-.047-.031-.046c-27.028-40.542-39.647-95.02-39.647-161.755 0-66.033 12.636-120.118 39.647-160.635l.031-.047zM796.869 620.88c25.013-36.96 37.52-87.92 37.52-152.88 0-64.213-12.507-114.8-37.52-151.76-24.64-36.96-64.587-55.44-119.84-55.44-55.254 0-95.387 18.48-120.4 55.44-24.64 36.96-36.96 87.547-36.96 151.76 0 64.96 12.32 115.92 36.96 152.88 25.013 36.96 65.146 55.44 120.4 55.44 55.253 0 95.2-18.48 119.84-55.44zm-83.717-233.69l-.019-.048c-2.97-7.424-7.144-12.22-12.32-15.349-5.357-3.237-12.97-5.393-23.784-5.393-10.814 0-18.428 2.156-23.784 5.393-5.177 3.129-9.351 7.925-12.321 15.349l-.019.048-.019.047c-7.06 17.329-11.137 43.834-11.137 80.763 0 24.839 1.467 44.907 4.228 60.45 2.561 14.065 7.464 24.639 14.111 32.492 5.468 5.776 14.227 9.778 28.941 9.778 14.933 0 23.351-4.113 28.361-9.75l.012-.013.012-.013c7.018-7.861 12.104-18.423 14.667-32.494 2.76-15.542 4.228-35.611 4.228-60.45 0-36.929-4.078-63.434-11.138-80.763l-.019-.047zm22.677 144.09c-2.987 16.427-9.147 29.867-18.48 40.32-8.96 10.08-22.4 15.12-40.32 15.12s-31.547-5.04-40.88-15.12c-8.96-10.453-14.934-23.893-17.92-40.32-2.987-16.8-4.48-37.893-4.48-63.28 0-37.707 4.106-66.64 12.32-86.8 8.213-20.533 25.2-30.8 50.96-30.8s42.746 10.267 50.96 30.8c8.213 20.16 12.32 49.093 12.32 86.8 0 25.387-1.494 46.48-4.48 63.28zm452.991-162.64H1014.1v30.362a130.39 130.39 0 019.56-4.154c15.45-6.006 31.99-8.928 49.48-8.928 30.39 0 56.92 6.901 78.5 21.853 21.09 14.357 36.73 33.151 46.54 56.197 9.49 22.285 14.16 46.275 14.16 71.79 0 46.82-13.3 85.842-41.4 115.22l-.04.042-.04.042c-28.4 29.267-67.73 42.936-115.64 42.936-31.64 0-59.953-5.339-84.497-16.571l-.101-.046-.101-.048c-24.372-11.567-43.756-27.787-57.496-48.826-13.652-20.905-20.946-44.815-22.186-71.28l-.785-16.749h123.486l2.51 12.96c1.58 8.176 5.25 14.748 11.17 20.207 4.87 4.169 12.46 7.153 24.64 7.153 13.91 0 21.68-4.239 26.5-10.535 5.85-7.623 9.58-18.784 9.58-35.065 0-15.83-3.86-25.371-9.2-31.148-5.08-5.513-13.32-9.412-27.44-9.412-9.96 0-16.74 2.447-21.58 6.181l-.18.142-.19.137c-5.13 3.733-8.45 8.565-10.16 15.155l-3.11 11.985H895.301v-275.6h293.519v116zM1016.58 585.6c-8.59-7.84-14-17.547-16.24-29.12h-93.519c.257 5.481.799 10.814 1.625 16 2.777 17.423 8.769 33.183 17.975 47.28 11.947 18.293 28.934 32.667 50.96 43.12 22.027 10.08 47.969 15.12 77.839 15.12 44.8 0 79.52-12.693 104.16-38.08 24.64-25.76 36.96-60.48 36.96-104.16 0-23.52-4.29-45.36-12.88-65.52-8.59-20.16-22.21-36.587-40.88-49.28-18.29-12.693-41.44-19.04-69.44-19.04-15.68 0-30.24 2.613-43.68 7.84-5.65 2.196-10.77 4.656-15.36 7.379-6.34 3.759-11.67 8.019-15.999 12.781v-77.28h174.719v-84H911.301v243.6h92.399c2.61-10.08 8.03-18.107 16.24-24.08 8.21-6.347 18.67-9.52 31.36-9.52 17.17 0 30.24 4.853 39.2 14.56 8.96 9.707 13.44 23.707 13.44 42 0 18.667-4.29 33.6-12.88 44.8-8.59 11.2-21.65 16.8-39.2 16.8-14.93 0-26.69-3.733-35.28-11.2z" fill="#fff"/>
    <path fill-rule="evenodd" clip-rule="evenodd" d="M-501.803-129.368c-.201.372-.333.615-.4.724l-1.57 2.548C-569.27-19.82-656.043 120.98-599.33 273.766c28.477 76.721 103.496 144.707 173.414 194.216 34.773 24.624 67.919 44.425 92.717 58.205 12.394 6.888 22.687 12.263 30.036 15.976a502.367 502.367 0 008.693 4.296c1.043.501 1.865.888 2.456 1.161.521.241.761.346.811.369.014.006.012.006-.004-.001 51.234 20.314 110.67 1.158 176.736-29.8 18.065-8.466 35.963-17.471 54.138-26.616 15.273-7.684 30.742-15.468 46.671-23.112 34.28-16.451 69.282-31.528 104.289-40.919 147.861-39.667 267.664-76.91 336.612-182.905 33.935-52.17 39.156-118.733 31.183-189.067-7.104-62.664-24.514-127.12-40.265-185.434-1.918-7.101-3.812-14.111-5.659-21.016-15.707-58.723-71.001-120.64-161.698-160.928-90.483-40.192-215.621-58.515-369.379-30.316-153.897 28.225-249.34 81.087-306.427 126.923-53.575 43.017-73.653 80.038-76.797 85.834zm-6.809-4.198c6.6-12.145 87.614-161.229 388.59-216.428 310.223-56.894 507.214 73.543 540.248 197.046a9195.032 9195.032 0 005.655 20.999c33.388 123.587 75.082 277.918 8.064 380.947C363.073 357.95 240.052 395.738 92.7 435.268c-49.877 13.38-100.152 38.665-149.208 63.336-85.834 43.169-167.937 84.46-237.647 56.821-5.535-2.195-253.932-120.617-312.675-278.875-58.081-156.471 30.572-300.297 95.599-405.793l2.217-3.598c.067-.108.199-.352.402-.725z" fill="#AEBFFF"/>
  </g>
  <defs>
    <clipPath id="Number=05__clip0">
      <path d="M0 0h1344v759H0V0z" fill="#fff"/>
    </clipPath>
  </defs>
</svg>

<svg width="1344" height="759" viewBox="0 0 1344 759" fill="none" xmlns="http://www.w3.org/2000/svg">
<g clip-path="url(#clip0)">
<path d="M0 0H1344V759H0V0Z" fill="#3358CC"/>
<path fill-rule="evenodd" clip-rule="evenodd" d="M776.017 463.114C980.668 288.988 970.415 140.816 970.519 137.193C973.552 31.3483 979.054 -114.789 868.298 -206.531C757.542 -298.272 523.825 -279.835 518.806 -279.096C419.475 -264.477 370.08 -111.219 284.563 -25.6503C192.683 66.2845 118.012 146.569 112.133 257.146C106.254 367.723 214.514 468.843 293.475 547.865C370.458 624.915 571.365 637.24 776.017 463.114Z" fill="#87A4FC"/>
<path fill-rule="evenodd" clip-rule="evenodd" d="M543.347 307.318L543.378 307.272C572.09 264.847 617.899 244.8 677.029 244.8C736.128 244.8 781.803 264.833 810.15 307.317C837.561 347.846 850.389 401.954 850.389 468C850.389 534.747 837.578 589.248 810.15 629.803C781.803 672.287 736.128 692.32 677.029 692.32C617.899 692.32 572.09 672.273 543.378 629.848L543.347 629.801L543.316 629.755C516.288 589.213 503.669 534.735 503.669 468C503.669 401.967 516.305 347.881 543.316 307.365L543.347 307.318ZM796.869 620.88C821.882 583.92 834.389 532.96 834.389 468C834.389 403.786 821.882 353.2 796.869 316.24C772.229 279.28 732.282 260.8 677.029 260.8C621.775 260.8 581.642 279.28 556.629 316.24C531.989 353.2 519.669 403.786 519.669 468C519.669 532.96 531.989 583.92 556.629 620.88C581.642 657.84 621.775 676.32 677.029 676.32C732.282 676.32 772.229 657.84 796.869 620.88ZM713.152 387.189L713.133 387.142C710.163 379.717 705.989 374.922 700.813 371.793C695.456 368.556 687.843 366.4 677.029 366.4C666.215 366.4 658.601 368.556 653.245 371.793C648.068 374.922 643.894 379.717 640.924 387.142L640.905 387.189L640.886 387.237C633.826 404.566 629.749 431.071 629.749 468C629.749 492.839 631.216 512.907 633.977 528.45C636.538 542.515 641.441 553.089 648.088 560.942C653.556 566.718 662.315 570.72 677.029 570.72C691.962 570.72 700.38 566.606 705.39 560.97L705.402 560.957L705.414 560.944C712.432 553.083 717.518 542.521 720.081 528.45C722.841 512.907 724.309 492.839 724.309 468C724.309 431.071 720.231 404.566 713.171 387.237L713.152 387.189ZM735.829 531.28C732.842 547.707 726.682 561.147 717.349 571.6C708.389 581.68 694.949 586.72 677.029 586.72C659.109 586.72 645.482 581.68 636.149 571.6C627.189 561.147 621.215 547.707 618.229 531.28C615.242 514.48 613.749 493.387 613.749 468C613.749 430.293 617.855 401.36 626.069 381.2C634.282 360.667 651.269 350.4 677.029 350.4C702.789 350.4 719.775 360.667 727.989 381.2C736.202 401.36 740.309 430.293 740.309 468C740.309 493.387 738.815 514.48 735.829 531.28ZM1188.82 368.64H1014.1V399.002C1017.17 397.514 1020.36 396.132 1023.66 394.848C1039.11 388.842 1055.65 385.92 1073.14 385.92C1103.53 385.92 1130.06 392.821 1151.64 407.773C1172.73 422.129 1188.37 440.924 1198.18 463.97C1207.67 486.255 1212.34 510.245 1212.34 535.76C1212.34 582.58 1199.04 621.602 1170.94 650.979L1170.9 651.022L1170.86 651.063C1142.46 680.331 1103.13 694 1055.22 694C1023.58 694 995.267 688.661 970.723 677.429L970.622 677.382L970.521 677.335C946.149 665.768 926.765 649.548 913.025 628.508C899.373 607.604 892.079 583.693 890.839 557.229L890.054 540.48H1013.54L1016.05 553.44C1017.63 561.616 1021.3 568.188 1027.22 573.647C1032.09 577.815 1039.68 580.8 1051.86 580.8C1065.77 580.8 1073.54 576.561 1078.36 570.265C1084.21 562.641 1087.94 551.481 1087.94 535.2C1087.94 519.37 1084.08 509.829 1078.74 504.052C1073.66 498.539 1065.42 494.64 1051.3 494.64C1041.34 494.64 1034.56 497.087 1029.72 500.82L1029.54 500.963L1029.35 501.1C1024.22 504.833 1020.9 509.665 1019.19 516.255L1016.08 528.24H895.301V252.64H1188.82V368.64ZM1016.58 585.6C1007.99 577.76 1002.58 568.053 1000.34 556.48H906.821C907.078 561.96 907.62 567.294 908.446 572.48C911.223 589.903 917.215 605.663 926.421 619.76C938.368 638.053 955.355 652.426 977.381 662.88C999.408 672.96 1025.35 678 1055.22 678C1100.02 678 1134.74 665.306 1159.38 639.92C1184.02 614.16 1196.34 579.44 1196.34 535.76C1196.34 512.24 1192.05 490.4 1183.46 470.24C1174.87 450.08 1161.25 433.653 1142.58 420.96C1124.29 408.267 1101.14 401.92 1073.14 401.92C1057.46 401.92 1042.9 404.533 1029.46 409.76C1023.81 411.956 1018.69 414.416 1014.1 417.139C1007.76 420.897 1002.43 425.158 998.101 429.92V352.64H1172.82V268.64H911.301V512.24H1003.7C1006.31 502.16 1011.73 494.133 1019.94 488.16C1028.15 481.813 1038.61 478.64 1051.3 478.64C1068.47 478.64 1081.54 483.493 1090.5 493.2C1099.46 502.906 1103.94 516.906 1103.94 535.2C1103.94 553.867 1099.65 568.8 1091.06 580C1082.47 591.2 1069.41 596.8 1051.86 596.8C1036.93 596.8 1025.17 593.066 1016.58 585.6Z" fill="white"/>
<path fill-rule="evenodd" clip-rule="evenodd" d="M-501.803 -129.368C-502.004 -128.996 -502.136 -128.753 -502.203 -128.645L-503.773 -126.096C-569.27 -19.8203 -656.043 120.979 -599.33 273.766C-570.853 350.486 -495.834 418.473 -425.916 467.982C-391.143 492.605 -357.997 512.407 -333.199 526.187C-320.805 533.074 -310.512 538.449 -303.163 542.162C-299.488 544.019 -296.555 545.457 -294.47 546.458C-293.427 546.959 -292.605 547.347 -292.014 547.62C-291.493 547.861 -291.253 547.966 -291.203 547.988C-291.189 547.995 -291.191 547.994 -291.207 547.988C-239.973 568.301 -180.537 549.146 -114.471 518.187C-96.4056 509.722 -78.5082 500.717 -60.333 491.572C-45.0603 483.887 -29.5914 476.104 -13.6616 468.459C20.6174 452.009 55.6196 436.932 90.6267 427.54C238.488 387.874 358.291 350.63 427.239 244.635C461.174 192.466 466.395 125.903 458.422 55.5686C451.318 -7.09564 433.908 -71.5505 418.157 -129.866C416.239 -136.966 414.345 -143.976 412.498 -150.881C396.791 -209.605 341.497 -271.521 250.8 -311.809C160.317 -352.002 35.1786 -370.324 -118.579 -342.125C-272.476 -313.901 -367.919 -261.039 -425.006 -215.202C-478.581 -172.185 -498.659 -135.165 -501.803 -129.368ZM-508.612 -133.566C-502.012 -145.712 -420.998 -294.795 -120.022 -349.994C190.201 -406.888 387.192 -276.451 420.226 -152.948C422.069 -146.061 423.961 -139.056 425.881 -131.95C459.269 -8.36284 500.963 145.969 433.945 248.997C363.073 357.95 240.052 395.737 92.6995 435.267C42.8226 448.648 -7.45203 473.932 -56.5077 498.604C-142.342 541.772 -224.445 583.064 -294.155 555.425C-299.69 553.23 -548.087 434.807 -606.83 276.55C-664.911 120.079 -576.258 -23.7469 -511.231 -129.244C-510.489 -130.448 -509.75 -131.647 -509.014 -132.842C-508.947 -132.949 -508.815 -133.193 -508.612 -133.566Z" fill="#AEBFFF"/>
</g>
<defs>
<clipPath id="clip0">
<path d="M0 0H1344V759H0V0Z" fill="white"/>
</clipPath>
</defs>
</svg>
